X: 17681
T: Holly Spoon, The
R: reel
M: 4/4
K: Gmajor
ge|d2BG BEE2|ABAE G2ge|d2BA BEE2|ABAEG2Be:|
dggfg2fg|edef gedB|dggfg2fg|eafdg3e|
dggfg2fg|edef gedB|(3ceg ec (3Bcd BG|AcBAG2||

